Blog/public/Images/css_logo.svg

<svg xmlns="http://www.w3.org/2000/svg"  viewBox="0 0 50 50" fill = "white"><path fill-rule="evenodd" d="M 42 6 L 39 40 L 25 44 L 11 40 L 8 6 Z M 16.800781 28 L 20.800781 28 L 20.898438 30.5 L 25 31.898438 L 29.101563 30.5 L 29.398438 26 L 20.601563 26 L 20.398438 22 L 29.601563 22 L 29.898438 18 L 16.101563 18 L 15.800781 14 L 34.101563 14 L 33.601563 22 L 32.898438 33.5 L 25 36.101563 L 17.101563 33.5 Z"/></svg>

<svg xmlns="http://www.w3.org/2000/svg" viewBox="0 0 50 50" fill="white" xmlns:v="https://vecta.io/nano"><path fill-rule="evenodd" d="M42 6l-3 34-14 4-14-4L8 6zM16.801 28h4l.098 2.5L25 31.898l4.102-1.398.297-4.5h-8.797l-.203-4h9.203l.297-4H16.102l-.301-4h18.301l-.5 8-.703 11.5L25 36.102 17.102 33.5z"/></svg>
